X:5674
T: Round the Horn
O:england
C: Jay Ungar
R: reel
M: C|
L: 1/8
K: G
((3DEF) \
| "G"G2GA BAGA | Bd2e d2B2 | "C"cdef "(Em)"e2g2 | "D"a6 ga \
| "D"b2b2 agfa | "G"gfed BAGB | "D"A2d2 BAG2 | "Em"E6 z2 :|
|: "Em"e3f e2d2 | "G"B6 B2 | "Am"A3A G2A2 | "D"B2 d6 \
| "G"g3a g2e2 | "D"dedc "G"BAGB | "D"A2d2 BAG2 | "Em"E6 z2 :|


